wp-content/uploads/2020/02/icon-marketing.svg

<svg viewBox="0 0 20 20" xmlns="http://www.w3.org/2000/svg"><g fill="#010101"><path d="m18.94 7.95a.2.2 0 0 0 0-.07.42.42 0 0 0 -.16-.24l-2.6-1.81v-1.95a.41.41 0 0 0 -.41-.41h-3l-2.54-1.76a.4.4 0 0 0 -.46 0l-2.55 1.77h-3a.41.41 0 0 0 -.41.41v1.92l-2.58 1.81a.41.41 0 0 0 -.17.33v10.05a.42.42 0 0 0 .12.29.41.41 0 0 0 .29.12h17.08a.41.41 0 0 0 .4-.41zm-2.78-1.13.09.06 1.54 1.12h-.07l-1.56 1.08zm-6.16-4.28 1.32.92h-2.68zm-5.35 1.75h10.7v5.36l-3.59 2.49-1.52-1.14a.41.41 0 0 0 -.49 0l-1.48 1.17-3.62-2.5zm-.81 2.51v2.31l-1.67-1.11zm-2 1.93 5.73 4h-.06l-5.64 4.4v-8.4zm15.31 8.8h-14.51l.13-.1 7.23-5.59 7.29 5.65zm-4.76-4.85h.06l5.66-3.93v8.42z"/><path d="m6.88 7.06h6.25a.41.41 0 1 0 0-.81h-6.25a.41.41 0 1 0 0 .81z"/><path d="m13.53 9.05a.41.41 0 0 0 -.41-.41h-6.24a.41.41 0 1 0 0 .81h6.25a.41.41 0 0 0 .4-.4z"/></g></svg>

<?xml version="1.0" encoding="utf-8"?><svg xmlns="http://www.w3.org/2000/svg" viewBox="0 0 20 20"><title>icon--marketing</title><path d="M18.94,7.95a.2.2,0,0,0,0-.07.42.42,0,0,0-.16-.24l-2.6-1.81V3.88a.41.41,0,0,0-.41-.41h-3L10.23,1.71a.4.4,0,0,0-.46,0L7.22,3.48h-3a.41.41,0,0,0-.41.41V5.81l0,0L1.23,7.62a.41.41,0,0,0-.17.33V18a.42.42,0,0,0,.12.29.41.41,0,0,0,.29.12l17.08,0a.41.41,0,0,0,.4-.41ZM16.16,6.82l.09.06L17.79,8l-.07,0L16.16,9.08ZM10,2.54l0,0,1.32.92H8.64ZM4.65,4.29h10.7V9.65l0,0-3.59,2.49,0,0L10.24,11a.41.41,0,0,0-.49,0L8.27,12.17l0,0L4.65,9.67ZM3.84,6.8V9.11L2.17,8Zm-2,1.93,5.73,4-.06,0L1.87,17.13V8.73Zm15.31,8.8-14.51,0,.13-.1L10,11.84l0,0,7.29,5.65Zm-4.76-4.85.06,0,5.66-3.93v8.42Z" fill="#010101"/><path d="M6.88,7.06h6.25a.41.41,0,1,0,0-.81H6.88a.41.41,0,1,0,0,.81Z" fill="#010101"/><path d="M13.53,9.05a.41.41,0,0,0-.41-.41H6.88a.41.41,0,1,0,0,.81h6.25A.41.41,0,0,0,13.53,9.05Z" fill="#010101"/></svg>
